src/image/issueType/story.svg

<?xml version="1.0" encoding="UTF-8" standalone="no"?>
<svg width="16px" height="16px" viewBox="0 0 16 16" version="1.1" xmlns="http://www.w3.org/2000/svg" xmlns:xlink="http://www.w3.org/1999/xlink" xmlns:sketch="http://www.bohemiancoding.com/sketch/ns">
    <!-- Generator: Sketch 3.5.2 (25235) - http://www.bohemiancoding.com/sketch -->
    <title>story</title>
    <desc>Created with Sketch.</desc>
    <defs></defs>
    <g id="Page-1" stroke="none" stroke-width="1" fill="none" fill-rule="evenodd" sketch:type="MSPage">
        <g id="story" sketch:type="MSArtboardGroup">
            <g id="Story" sketch:type="MSLayerGroup" transform="translate(1.000000, 1.000000)">
                <rect id="Rectangle-36" fill="#63BA3C" sketch:type="MSShapeGroup" x="0" y="0" width="14" height="14" rx="2"></rect>
                <path d="M9,3 L5,3 C4.448,3 4,3.448 4,4 L4,10.5 C4,10.776 4.224,11 4.5,11 C4.675,11 4.821,10.905 4.91,10.769 L4.914,10.77 L6.84,8.54 C6.92,8.434 7.08,8.434 7.16,8.54 L9.086,10.77 L9.09,10.769 C9.179,10.905 9.325,11 9.5,11 C9.776,11 10,10.776 10,10.5 L10,4 C10,3.448 9.552,3 9,3" id="Page-1" fill="#FFFFFF" sketch:type="MSShapeGroup"></path>
            </g>
        </g>
    </g>
</svg>

<svg width="16" height="16" xmlns="http://www.w3.org/2000/svg">
  <g transform="translate(1 1)" fill="none" fill-rule="evenodd">
    <rect fill="#63BA3C" width="14" height="14" rx="2"/>
    <path d="M9 3H5a1 1 0 0 0-1 1v6.5a.5.5 0 0 0 .5.5.49.49 0 0 0 .41-.231l.004.001L6.84 8.54a.2.2 0 0 1 .32 0l1.926 2.23.004-.001A.49.49 0 0 0 9.5 11a.5.5 0 0 0 .5-.5V4a1 1 0 0 0-1-1" fill="#FFF"/>
  </g>
</svg>
